X:1
T:Shall I Wasting in Despair
M:4/4
L:1/8
K:F
 c3 d c2 G2|A-GF-E D4| F3 F B2 G2| c2B-A G4| G3 G A2 F2| F2 B2 A3 B|\
c-BA-G F2 E2| D3 C C4| G2E-F G2 C2| F2 G2 A4| F3 GA-B c2| E3 F G4|\
 G2 GAB-GB-c| d2c-B A4| A2 F2 c3 A| G3 F F4|

